X: 1
T:Maids of Mitchellstown, The
R:Reel
M:C|
S:Transposed
K:EDor
E2BA FA~A2|B2AB dBAF|E2BA FA~A2|(3Bcd AF FEE2::\
FABc d2cA|Beef g2fe|dBAF ~G3A|1 (3Bcd AF FEE2:|2 (3Bcd ce dBAF||
